app/component-library/components/Icons/Icon/assets/confirmation.svg

<svg width="24" height="24" viewBox="0 0 24 24" fill="none" xmlns="http://www.w3.org/2000/svg">
<path fill-rule="evenodd" clip-rule="evenodd" d="M1.25 12C1.25 6.08579 6.08579 1.25 12 1.25C17.9142 1.25 22.75 6.08579 22.75 12C22.75 17.9142 17.9142 22.75 12 22.75C6.08579 22.75 1.25 17.9142 1.25 12ZM12 2.75C6.91421 2.75 2.75 6.91421 2.75 12C2.75 17.0858 6.91421 21.25 12 21.25C17.0858 21.25 21.25 17.0858 21.25 12C21.25 6.91421 17.0858 2.75 12 2.75Z" fill="currentColor"/>
<path fill-rule="evenodd" clip-rule="evenodd" d="M22 12C22 17.5 17.5 22 12 22C6.5 22 2 17.5 2 12C2 6.5 6.5 2 12 2C17.5 2 22 6.5 22 12ZM16.7799 9.70078C17.073 9.40815 17.0734 8.93327 16.7808 8.64012C16.4882 8.34697 16.0133 8.34655 15.7201 8.63918L10.5805 13.7698L8.28033 11.4697C7.98744 11.1768 7.51256 11.1768 7.21967 11.4697C6.92678 11.7625 6.92678 12.2374 7.21967 12.5303L10.0497 15.3603C10.3424 15.653 10.8169 15.6532 11.1099 15.3608L16.7799 9.70078Z" fill="currentColor"/>
</svg>

<svg xmlns="http://www.w3.org/2000/svg" width="24" height="24" viewBox="0 0 24 24" fill="none"><path fill-rule="evenodd" clip-rule="evenodd" d="M1.25 12C1.25 6.086 6.086 1.25 12 1.25S22.75 6.086 22.75 12 17.914 22.75 12 22.75 1.25 17.914 1.25 12zM12 2.75c-5.086 0-9.25 4.164-9.25 9.25s4.164 9.25 9.25 9.25 9.25-4.164 9.25-9.25S17.086 2.75 12 2.75z" fill="currentColor"/><path fill-rule="evenodd" clip-rule="evenodd" d="M22 12c0 5.5-4.5 10-10 10S2 17.5 2 12 6.5 2 12 2s10 4.5 10 10zm-5.22-2.3a.75.75 0 0 0-1.06-1.06l-5.14 5.13-2.3-2.3a.75.75 0 0 0-1.06 1.06l2.83 2.83a.75.75 0 0 0 1.06 0l5.67-5.66z" fill="currentColor"/></svg>
